templates/main/source/images/block-1-1.svg

<?xml version="1.0" encoding="utf-8"?>
<svg width="51px" height="49px" viewbox="0 0 51 49" version="1.1" xmlns:xlink="http://www.w3.org/1999/xlink" xmlns="http://www.w3.org/2000/svg">
  <g id="Group-12" transform="translate(0.5 0.5)">
    <path d="M18 36C27.9411 36 36 27.9411 36 18C36 8.05887 27.9411 0 18 0C8.05887 0 0 8.05887 0 18C0 27.9411 8.05887 36 18 36Z" id="Oval" fill="#8C0014" fill-opacity="0.14901961" fill-rule="evenodd" stroke="none" />
    <path d="M42.4961 9.38939L48.3227 13.2721C49.5305 14.0772 49.8571 15.7092 49.0518 16.9171C48.2465 18.125 46.6146 18.4515 45.4067 17.6462L42.6667 15.8201L42.6667 36.0518C43.3447 36.3938 43.8733 36.9729 44.1523 37.6791C44.4656 38.469 44.4478 39.3516 44.1028 40.1282C43.7689 40.8939 43.1405 41.4929 42.3596 41.7896L29.1773 46.8166C25.6736 48.1578 21.7908 48.1147 18.3177 46.6963L11.9467 44.0509L11.9467 44.3761C11.9467 44.8473 11.5646 45.2294 11.0933 45.2294L4.26667 45.2294C3.79541 45.2294 3.41333 44.8473 3.41333 44.3761L0 44.3761L0 42.6694L3.41333 42.6694L3.41333 34.1361L0 34.1361L0 32.4294L3.41333 32.4294C3.41333 31.9581 3.79541 31.5761 4.26667 31.5761L11.0933 31.5761C11.5646 31.5761 11.9467 31.9581 11.9467 32.4294L13.6533 32.4294L13.6533 15.8201L10.9133 17.6462C9.70539 18.4515 8.07349 18.125 7.26837 16.9171C6.46304 15.7092 6.78955 14.0773 7.99755 13.2721L27.6864 0.14352C27.9732 -0.04784 28.3469 -0.04784 28.6337 0.14352L36.6933 5.51952L36.6933 3.41605C36.6933 2.9448 37.0754 2.56272 37.5467 2.56272L41.8133 2.56272C42.2846 2.56272 42.6667 2.9448 42.6667 3.41605L42.6667 9.38939L42.4961 9.38939ZM46.3531 16.228C46.5046 16.3288 46.6825 16.3826 46.8643 16.3826C47.3738 16.3825 47.7868 15.9694 47.7867 15.46C47.7872 15.1514 47.6331 14.8631 47.3763 14.692L28.16 1.88005L8.94389 14.6903C8.68693 14.8613 8.53291 15.1497 8.53333 15.4583C8.53333 15.6403 8.58709 15.8181 8.688 15.9695C8.97035 16.3937 9.54283 16.5086 9.96693 16.2263L27.6864 4.41275C27.9732 4.22139 28.3469 4.22139 28.6337 4.41275L46.3531 16.228ZM40.96 4.26939L38.4 4.26939L38.4 6.65872L40.96 8.36539L40.96 4.26939ZM24.9541 34.9894L31.5733 34.9894C33.2228 34.9894 34.56 36.3266 34.56 37.9761C34.5552 38.0807 34.5446 38.1849 34.5285 38.2884L40.0615 35.9391C40.3483 35.822 40.6514 35.7493 40.96 35.7233L40.96 14.6801L28.16 6.14672L15.36 14.6801L15.36 32.4721C18.0268 32.6412 20.633 33.3422 23.0246 34.5337C23.6241 34.8324 24.2844 34.9884 24.9541 34.9894ZM23.0401 14.5094C21.1549 14.5094 19.6267 16.0376 19.6267 17.9227C19.6267 19.8078 21.1549 21.3361 23.0401 21.3361C24.9252 21.3361 26.4534 19.8078 26.4534 17.9227C26.4534 16.0376 24.9252 14.5094 23.0401 14.5094ZM34.3828 15.6127L20.7297 29.2657L21.9365 30.4725L35.5896 16.8194L34.3828 15.6127ZM23.0401 19.6294C22.0974 19.6294 21.3334 18.8653 21.3334 17.9227C21.3334 16.9801 22.0974 16.2161 23.0401 16.2161C23.9827 16.2161 24.7467 16.9801 24.7467 17.9227C24.7467 18.8653 23.9827 19.6294 23.0401 19.6294ZM33.2801 24.7494C31.3949 24.7494 29.8667 26.2776 29.8667 28.1627C29.8667 30.0478 31.3949 31.5761 33.2801 31.5761C35.1652 31.5761 36.6934 30.0478 36.6934 28.1627C36.6934 26.2776 35.1652 24.7494 33.2801 24.7494ZM33.2801 29.8694C32.3374 29.8694 31.5734 29.1053 31.5734 28.1627C31.5734 27.2201 32.3374 26.4561 33.2801 26.4561C34.2227 26.4561 34.9867 27.2201 34.9867 28.1627C34.9867 29.1053 34.2227 29.8694 33.2801 29.8694ZM10.24 43.5227L5.12 43.5227L5.12 33.2827L10.24 33.2827L10.24 43.5227ZM41.7476 40.1973C42.1022 40.0617 42.3871 39.7887 42.5378 39.4404C42.6976 39.0808 42.7059 38.6721 42.5609 38.3063C42.4237 37.9479 42.1465 37.6611 41.7929 37.5118C41.4531 37.3668 41.0686 37.3668 40.7287 37.5118L33.5941 40.5403C32.9706 40.805 32.3019 40.9467 31.6246 40.9576C31.6067 40.9576 31.5905 40.9627 31.5733 40.9627L21.3333 40.9627L21.3333 39.2561L31.5204 39.2561C31.634 39.2561 31.7431 39.233 31.8549 39.2227C32.4317 39.0887 32.8412 38.5764 32.845 37.9843C32.8496 37.2774 32.2802 36.7006 31.5733 36.6961L24.9541 36.6961C24.0196 36.6953 23.0979 36.4777 22.2619 36.0603C19.7295 34.798 16.9394 34.1394 14.1099 34.1361L11.9467 34.1361L11.9467 42.2026L18.9637 45.1202C22.035 46.3731 25.4678 46.41 28.5653 45.2234L41.7476 40.1973ZM6.82672 41.8161L6.82672 40.1094L8.53339 40.1094L8.53339 41.8161L6.82672 41.8161Z" transform="translate(-5.3333333E-05 0.10666667)" id="Combined-Shape" fill="#8C0014" fill-rule="evenodd" stroke="none" />
  </g>
</svg>

<svg width="51" height="49" xmlns:xlink="http://www.w3.org/1999/xlink" xmlns="http://www.w3.org/2000/svg"><g id="Group-12" transform="translate(.5 .5)" fill="#8C0014" fill-rule="evenodd" stroke="none"><path d="M18 36c9.941 0 18-8.059 18-18S27.941 0 18 0 0 8.059 0 18s8.059 18 18 18z" id="Oval" fill-opacity=".149"/><path d="M42.496 9.39l5.827 3.882a2.628 2.628 0 11-2.916 4.374l-2.74-1.826v20.232a3.097 3.097 0 011.485 1.627c.314.79.296 1.673-.05 2.45a3.105 3.105 0 01-1.742 1.66l-13.183 5.028a14.763 14.763 0 01-10.86-.12l-6.37-2.646v.325a.853.853 0 01-.854.853H4.267a.853.853 0 01-.854-.853H0V42.67h3.413v-8.533H0V32.43h3.413c0-.47.382-.853.854-.853h6.826c.472 0 .854.382.854.853h1.706V15.82l-2.74 1.826a2.628 2.628 0 11-2.915-4.374L27.686.144a.853.853 0 01.948 0l8.06 5.376V3.416c0-.471.381-.853.853-.853h4.266c.472 0 .854.382.854.853v5.973h-.17zm3.857 6.838a.923.923 0 001.023-1.536L28.16 1.88 8.944 14.69a.92.92 0 00-.256 1.28.922.922 0 001.279.256l17.72-11.813a.853.853 0 01.947 0l17.72 11.815zM40.96 4.269H38.4v2.39l2.56 1.706V4.27zM24.954 34.99h6.62a2.987 2.987 0 012.986 2.987 2.895 2.895 0 01-.032.312l5.534-2.349c.286-.117.59-.19.898-.216V14.68l-12.8-8.533-12.8 8.533v17.792c2.667.17 5.273.87 7.665 2.062.6.298 1.26.454 1.93.455zM23.04 14.51a3.413 3.413 0 100 6.827 3.413 3.413 0 000-6.827zm11.343 1.104L20.73 29.266l1.206 1.207L35.59 16.819l-1.207-1.206zM23.04 19.629a1.707 1.707 0 110-3.413 1.707 1.707 0 010 3.413zm10.24 5.12a3.413 3.413 0 100 6.827 3.413 3.413 0 000-6.827zm0 5.12a1.707 1.707 0 110-3.413 1.707 1.707 0 010 3.413zM10.24 43.523H5.12v-10.24h5.12v10.24zm31.508-3.326a1.41 1.41 0 00.79-.757c.16-.36.168-.768.023-1.134a1.409 1.409 0 00-.768-.794 1.356 1.356 0 00-1.064 0l-7.135 3.028a5.256 5.256 0 01-1.97.418c-.017 0-.034.005-.05.005h-10.24v-1.707H31.52c.114 0 .223-.023.335-.033a1.28 1.28 0 00-.282-2.527h-6.619a6.039 6.039 0 01-2.692-.636 18.321 18.321 0 00-8.152-1.924h-2.163v8.067l7.017 2.917a13.055 13.055 0 009.601.103l13.183-5.026zm-34.921 1.62v-1.708h1.706v1.707H6.827z" transform="translate(0 .107)" id="Combined-Shape"/></g></svg>
